X:191
T:Moon behind the mountain - G
M:4/4
L:1/8
K:G
Bc|:d2B2 G2B2 | D6 B,C| D2D2 G2 B2 | d6 AB | c2A2 F2A2| D6 FG | A2AB AGFE| D6 Bc|
||b4 b4|b6 ga|

